!!!OTL: IN EINEM THAL BEI ARMEN HIRTEN
!!!ARE: Europa, Mitteleuropa, Deutschland
!!!SCT: F0303
!!!YEM: Copyright 1995, estate of Helmut Schaffrath.
**kern
*ICvox
*Ivox
*M4/4
*k[b-e-]
*B-:
{8f
8en
8f
=1
2b-
8r
8b-
8a
8b-
=2
8bn
8cc
4cc
8r}
{8ee-
8dd
8cc
=3
4b-
8a
8b-
4cc
8ff
8ee-
=4
2dd
8r}
{8dd
8ee-
8ff
=5
4ff
8ee-
8dd
4ff
8ee-
8dd
=6
8.cc
16ee-
4ee-
8r}
{8ee-
8dd
8cc
=7
4.b-
8b-
4cc
8ff
8ee-
=8
2dd
8r}
{8ee-
8dd
8cc
=9
4ff
12gg
12ee-
12cc
4b-
12dd
12cc
12b-
=10
2b-
8r}
==
!!!AGN: Jugend - Lied
!!!ONB: ESAC (Essen Associative Code) Database: FINK
!!!AMT: simple quadruple
!!!AIN: vox
!!!EED: Helmut Schaffrath
!!!EEV: 1.0
*-
